static/assets/template/assets/img/icons/essential/detailed/Secure_Payments.svg

<svg height="136" viewBox="0 0 151 136" width="151" xmlns="http://www.w3.org/2000/svg"><g fill="none" fill-rule="evenodd"><g transform="translate(1 36)"><path d="m147.8 88.4v3.8c0 3.5-3 6.3-6.6 6.3h-133.8c-3.7 0-6.6-2.8-6.6-6.3v-3.8h60.5c.5 1.4 1.9 2.4 3.6 2.4h18.9c1.7 0 3.1-1 3.6-2.4z" fill-rule="nonzero"/><path d="m140.3 88.4h-132v-82.9c0-3 2.4-5.5 5.5-5.5h121c3 0 5.5 2.4 5.5 5.5z" fill-rule="nonzero"/><path d="m140.3 88.4h-128.7v-82.2c0-1.9 1.6-3.5 3.5-3.5h119.9c2.9 0 5.3 2.4 5.3 5.3z" fill-rule="nonzero"/><path d="m56.8 88.4h-48.5v-43" stroke-linecap="round" stroke-linejoin="round" stroke-width="3"/><path d="m8.3 24.9v-19.4c0-3 2.4-5.5 5.5-5.5h121c3 0 5.5 2.4 5.5 5.5v82.9h-35" stroke-linecap="round" stroke-linejoin="round" stroke-width="3"/><path d="m8.3 33.9v-.7" stroke-linecap="round" stroke-linejoin="round" stroke-width="3"/><path d="m147.8 91.4v2.7c0 2.5-2.9 4.5-6.5 4.5h-130.5c-3.6 0-6.5-2-6.5-4.5v-2.7h55.4c.5 1 1.9 1.7 3.5 1.7h22c1.6 0 3-.7 3.5-1.7z" fill-rule="nonzero"/><path d="m14.5 6.9h119.1" fill-rule="nonzero"/><path d="m107.4 88.7h-92.9v-81.8h119.1v81.8h-12.4" fill-rule="nonzero"/><g stroke-linecap="round" stroke-linejoin="round" stroke-width="3"><path d="m54 88.4h-39.5v-81.5h119.1v18.9"/><path d="m97.9 88.4h-.7"/><path d="m133.6 88.4h-30.9"/><path d="m133.6 34.6v53.8"/><path d="m133.6 88.4h14.2v3.8c0 3.5-3 6.3-6.6 6.3h-133.8c-3.7 0-6.6-2.8-6.6-6.3v-3.8h60.5c.5 1.4 1.9 2.4 3.6 2.4h18.9c1.2 0 2.2-.5 2.9-1.4"/></g></g><g stroke-linecap="round" stroke-linejoin="round" stroke-width="3" transform="translate(22 61)"><path d="m54.3 45.6h-8.5"/><path d="m35.5 45.6h-35.2"/><path d="m70.7 33.7h-38.3"/><path d="m21.7 33.7h-20.9"/><path d="m1.3.1h24.5"/><path d="m1.3 8.5h16.6"/></g><g fill-rule="nonzero"><g transform="translate(40 2)"><path d="m69.6 12c-.1 19.5-.9 32.2-5.6 42.1-4.6 9.9-13.1 17-28.7 25.4-.1 0-.2.1-.3.1-31.4-17-34.3-28.7-34.5-67.7h.9c8.8 0 23.3-4.7 33.7-11.7 10.6 7.4 25.8 12.1 34.5 11.8z" stroke-linecap="round" stroke-linejoin="round" stroke-width="3"/><path d="m35 70.7c-22.6-12.8-26-21.4-26.6-51.4 8.5-1.4 18.4-4.9 26.6-9.7 8.2 4.7 18.1 8.3 26.6 9.7-.3 14.9-1.4 24.3-4.7 31.5-3.4 7.2-9.7 12.9-21.9 19.9z" stroke-linecap="round" stroke-linejoin="round" stroke-width="3"/><g transform="translate(21 27)"><path d="m13.3 22.2c-1.4 0-2.8-.5-3.8-1.5l-6.5-6.3c-.7-.7-1.1-1.6-1.1-2.5 0-1 .3-1.9 1-2.6s1.6-1.1 2.6-1.1c.9 0 1.8.4 2.5 1l5.2 5.1 11-11c.7-.7 1.6-1.1 2.6-1.1s1.9.4 2.6 1.1 1.1 1.6 1.1 2.6-.4 1.9-1.1 2.6l-12.3 12.3c-1 .9-2.4 1.4-3.8 1.4z"/><path d="m26.8 3.7c.5 0 1.1.2 1.5.6.8.8.8 2.2 0 3l-12.3 12.3c-.7.7-1.7 1.2-2.8 1.2-1 0-2-.4-2.8-1.1l-6.5-6.3c-.8-.8-.9-2.2 0-3 .4-.4 1-.6 1.5-.6s1.1.2 1.5.6l6.2 6.1 12-12c.6-.6 1.2-.8 1.7-.8zm0-3c-1.4 0-2.7.5-3.6 1.5l-9.9 9.9-4.1-4c-1-.9-2.2-1.5-3.6-1.5s-2.7.6-3.7 1.6-1.5 2.3-1.4 3.7c0 1.4.6 2.6 1.6 3.6l6.5 6.3c1.3 1.3 3 2 4.8 2 1.9 0 3.6-.7 4.9-2l12.3-12.2c1-1 1.5-2.3 1.5-3.6s-.5-2.7-1.5-3.6c-1.1-1.2-2.4-1.7-3.8-1.7z"/></g></g><g transform="translate(104 72)"><path d="m10.7 37.1c-1.5 0-2.7-1.2-2.7-2.7v-1.3c-1.4-.2-2.8-.6-4-1.1-1.4-.6-2-2.2-1.5-3.6.4-1.2 1.5-1.9 2.7-1.9.4 0 .8.1 1.2.3.8.4 2.1.8 3.7.8 1.9 0 3.1-.9 3.1-2.3 0-.9-.3-1.9-3.5-3.2-3.6-1.4-7.3-3.5-7.3-8.1 0-3.6 2.3-6.4 5.9-7.5v-1.5c0-1.5 1.2-2.7 2.7-2.7s2.7 1.2 2.7 2.7v1.2c1.1.1 2 .4 2.9.8 1.4.6 2.1 2.2 1.6 3.7-.4 1.1-1.5 1.8-2.7 1.8-.4 0-.7-.1-1.1-.2-.9-.4-2-.6-3.1-.6-2.4 0-2.6 1.4-2.6 1.8 0 .9.3 1.5 3.9 3 3.2 1.3 7 3.5 7 8.5 0 3.7-2.4 6.7-6.1 7.8v1.6c-.1 1.5-1.3 2.7-2.8 2.7z"/><path d="m10.9 3.7c.7 0 1.2.5 1.2 1.2v2.6c1.6.1 2.9.4 3.9.8.7.3 1 1.1.7 1.7-.2.5-.7.9-1.3.9-.2 0-.4 0-.5-.1-.9-.4-2.1-.7-3.6-.7-3 0-4.1 1.8-4.1 3.3 0 2 1.4 3 4.8 4.4 4 1.6 6 3.7 6 7.1 0 3.1-2.1 5.9-6.1 6.6v2.8c0 .7-.5 1.2-1.2 1.2s-1.2-.5-1.2-1.2v-2.7c-1.7 0-3.5-.4-4.8-1.1-.6-.3-1-1-.7-1.7.2-.6.7-.9 1.3-.9.2 0 .4 0 .6.1 1.2.6 2.7.9 4.3.9 2.8 0 4.6-1.6 4.6-3.8 0-2.1-1.5-3.5-4.4-4.6-4-1.6-6.4-3.3-6.4-6.7 0-3.2 2.3-5.7 5.9-6.3v-2.7c-.2-.6.4-1.1 1-1.1zm0-3c-2.3 0-4.2 1.9-4.2 4.2v.5c-3.6 1.5-5.9 4.7-5.9 8.5 0 6.3 5.8 8.5 8.3 9.5s2.5 1.6 2.5 1.8c0 .8-1.6.8-1.6.8-1.3 0-2.4-.4-3-.7s-1.2-.4-1.8-.4c-1.8 0-3.5 1.2-4.1 2.9-.8 2.2.2 4.5 2.3 5.5.9.4 2 .8 3.1 1v.1c0 2.3 1.9 4.2 4.2 4.2 2.4 0 4.2-1.9 4.2-4.2v-.6c3.8-1.5 6.1-4.8 6.1-8.9 0-6-4.5-8.5-7.9-9.9-2.2-.9-2.8-1.4-2.9-1.6 0 0 0 0 0-.1 0-.3.7-.3 1.1-.3.9 0 1.7.2 2.5.5.5.2 1.1.3 1.7.3 1.8 0 3.4-1.1 4.1-2.8.8-2.2-.2-4.7-2.4-5.6-.6-.3-1.3-.5-2-.6-.1-2.3-2-4.1-4.3-4.1z"/></g></g></g></svg>

<?xml version="1.0" encoding="UTF-8"?>
<svg width="151px" height="136px" viewBox="0 0 151 136" version="1.1" xmlns="http://www.w3.org/2000/svg" xmlns:xlink="http://www.w3.org/1999/xlink">
    <!-- Generator: Sketch 51.2 (57519) - http://www.bohemiancoding.com/sketch -->
    <title>Secure_Payments</title>
    <desc>Created with Sketch.</desc>
    <defs></defs>
    <g id="Page-1" stroke="none" stroke-width="1" fill="none" fill-rule="evenodd">
        <g id="Secure_Payments" transform="translate(1.000000, 2.000000)">
            <g id="Group" transform="translate(0.000000, 34.000000)">
                <path d="M147.8,88.4 L147.8,92.2 C147.8,95.7 144.8,98.5 141.2,98.5 L7.4,98.5 C3.7,98.5 0.8,95.7 0.8,92.2 L0.8,88.4 L61.3,88.4 C61.8,89.8 63.2,90.8 64.9,90.8 L83.8,90.8 C85.5,90.8 86.9,89.8 87.4,88.4 L147.8,88.4 Z" id="Shape" class="fill-neutral" fill-rule="nonzero"></path>
                <path d="M140.3,88.4 L8.3,88.4 L8.3,5.5 C8.3,2.5 10.7,0 13.8,0 L134.8,0 C137.8,0 140.3,2.4 140.3,5.5 L140.3,88.4 Z" id="Shape" class="fill-neutral" fill-rule="nonzero"></path>
                <path d="M140.3,88.4 L11.6,88.4 L11.6,6.2 C11.6,4.3 13.2,2.7 15.1,2.7 L135,2.7 C137.9,2.7 140.3,5.1 140.3,8 L140.3,88.4 Z" id="Shape" class="fill-primary-100" fill-rule="nonzero"></path>
                <polyline id="Shape" class="stroke-primary" stroke-width="3" stroke-linecap="round" stroke-linejoin="round" points="56.8 88.4 8.3 88.4 8.3 45.4"></polyline>
                <path d="M8.3,24.9 L8.3,5.5 C8.3,2.5 10.7,0 13.8,0 L134.8,0 C137.8,0 140.3,2.4 140.3,5.5 L140.3,88.4 L105.3,88.4" id="Shape" class="stroke-primary" stroke-width="3" stroke-linecap="round" stroke-linejoin="round"></path>
                <path d="M8.3,33.9 L8.3,33.2" id="Shape" class="stroke-primary" stroke-width="3" stroke-linecap="round" stroke-linejoin="round"></path>
                <path d="M147.8,91.4 L147.8,94.1 C147.8,96.6 144.9,98.6 141.3,98.6 L10.8,98.6 C7.2,98.6 4.3,96.6 4.3,94.1 L4.3,91.4 L59.7,91.4 C60.2,92.4 61.6,93.1 63.2,93.1 L85.2,93.1 C86.8,93.1 88.2,92.4 88.7,91.4 L147.8,91.4 Z" id="Shape" class="fill-primary-300" fill-rule="nonzero"></path>
                <path d="M14.5,6.9 L133.6,6.9" id="Shape" class="fill-neutral" fill-rule="nonzero"></path>
                <polyline id="Shape" class="fill-neutral" fill-rule="nonzero" points="107.4 88.7 14.5 88.7 14.5 6.9 133.6 6.9 133.6 88.7 121.2 88.7"></polyline>
                <polyline id="Shape" class="stroke-primary" stroke-width="3" stroke-linecap="round" stroke-linejoin="round" points="54 88.4 14.5 88.4 14.5 6.9 133.6 6.9 133.6 25.8"></polyline>
                <path d="M97.9,88.4 L97.2,88.4" id="Shape" class="stroke-primary" stroke-width="3" stroke-linecap="round" stroke-linejoin="round"></path>
                <path d="M133.6,88.4 L102.7,88.4" id="Shape" class="stroke-primary" stroke-width="3" stroke-linecap="round" stroke-linejoin="round"></path>
                <path d="M133.6,34.6 L133.6,88.4" id="Shape" class="stroke-primary" stroke-width="3" stroke-linecap="round" stroke-linejoin="round"></path>
                <path d="M133.6,88.4 L147.8,88.4 L147.8,92.2 C147.8,95.7 144.8,98.5 141.2,98.5 L7.4,98.5 C3.7,98.5 0.8,95.7 0.8,92.2 L0.8,88.4 L61.3,88.4 C61.8,89.8 63.2,90.8 64.9,90.8 L83.8,90.8 C85,90.8 86,90.3 86.7,89.4" id="Shape" class="stroke-primary" stroke-width="3" stroke-linecap="round" stroke-linejoin="round"></path>
            </g>
            <g id="Group" transform="translate(21.000000, 59.000000)" class="stroke-primary" stroke-linecap="round" stroke-linejoin="round" stroke-width="3">
                <path d="M54.3,45.6 L45.8,45.6" id="Shape"></path>
                <path d="M35.5,45.6 L0.3,45.6" id="Shape"></path>
                <path d="M70.7,33.7 L32.4,33.7" id="Shape"></path>
                <path d="M21.7,33.7 L0.8,33.7" id="Shape"></path>
                <path d="M1.3,0.1 L25.8,0.1" id="Shape"></path>
                <path d="M1.3,8.5 L17.9,8.5" id="Shape"></path>
            </g>
            <g id="Group" transform="translate(39.000000, 0.000000)" fill-rule="nonzero">
                <path d="M69.6,12 C69.5,31.5 68.7,44.2 64,54.1 C59.4,64 50.9,71.1 35.3,79.5 C35.2,79.5 35.1,79.6 35,79.6 C3.6,62.6 0.7,50.9 0.5,11.9 C0.8,11.9 1.1,11.9 1.4,11.9 C10.2,11.9 24.7,7.2 35.1,0.2 C45.7,7.6 60.9,12.3 69.6,12 Z" id="Shape" stroke-width="3" class="stroke-primary fill-primary-300" stroke-linecap="round" stroke-linejoin="round"></path>
                <path d="M35,70.7 C12.4,57.9 9,49.3 8.4,19.3 C16.9,17.9 26.8,14.4 35,9.6 C43.2,14.3 53.1,17.9 61.6,19.3 C61.3,34.2 60.2,43.6 56.9,50.8 C53.5,58 47.2,63.7 35,70.7 Z" id="Shape" stroke-width="3" class="stroke-primary fill-neutral" stroke-linecap="round" stroke-linejoin="round"></path>
                <g transform="translate(21.000000, 27.000000)" id="Shape">
                    <path d="M13.3,22.2 C11.9,22.2 10.5,21.7 9.5,20.7 L3,14.4 C2.3,13.7 1.9,12.8 1.9,11.9 C1.9,10.9 2.2,10 2.9,9.3 C3.6,8.6 4.5,8.2 5.5,8.2 C6.4,8.2 7.3,8.6 8,9.2 L13.2,14.3 L24.2,3.3 C24.9,2.6 25.8,2.2 26.8,2.2 C27.8,2.2 28.7,2.6 29.4,3.3 C30.1,4 30.5,4.9 30.5,5.9 C30.5,6.9 30.1,7.8 29.4,8.5 L17.1,20.8 C16.1,21.7 14.7,22.2 13.3,22.2 Z" class="fill-neutral"></path>
                    <path d="M26.8,3.7 C27.3,3.7 27.9,3.9 28.3,4.3 C29.1,5.1 29.1,6.5 28.3,7.3 L16,19.6 C15.3,20.3 14.3,20.8 13.2,20.8 C12.2,20.8 11.2,20.4 10.4,19.7 L3.9,13.4 C3.1,12.6 3,11.2 3.9,10.4 C4.3,10 4.9,9.8 5.4,9.8 C5.9,9.8 6.5,10 6.9,10.4 L13.1,16.5 L25.1,4.5 C25.7,3.9 26.3,3.7 26.8,3.7 Z M26.8,0.7 C25.4,0.7 24.1,1.2 23.2,2.2 L13.3,12.1 L9.2,8.1 C8.2,7.2 7,6.6 5.6,6.6 C4.2,6.6 2.9,7.2 1.9,8.2 C0.9,9.2 0.4,10.5 0.5,11.9 C0.5,13.3 1.1,14.5 2.1,15.5 L8.6,21.8 C9.9,23.1 11.6,23.8 13.4,23.8 C15.3,23.8 17,23.1 18.3,21.8 L30.6,9.6 C31.6,8.6 32.1,7.3 32.1,6 C32.1,4.7 31.6,3.3 30.6,2.4 C29.5,1.2 28.2,0.7 26.8,0.7 Z" class="fill-primary"></path>
                </g>
            </g>
            <g id="Group" transform="translate(103.000000, 70.000000)" fill-rule="nonzero">
                <path d="M10.7,37.1 C9.2,37.1 8,35.9 8,34.4 L8,33.1 C6.6,32.9 5.2,32.5 4,32 C2.6,31.4 2,29.8 2.5,28.4 C2.9,27.2 4,26.5 5.2,26.5 C5.6,26.5 6,26.6 6.4,26.8 C7.2,27.2 8.5,27.6 10.1,27.6 C12,27.6 13.2,26.7 13.2,25.3 C13.2,24.4 12.9,23.4 9.7,22.1 C6.1,20.7 2.4,18.6 2.4,14 C2.4,10.4 4.7,7.6 8.3,6.5 L8.3,5 C8.3,3.5 9.5,2.3 11,2.3 C12.5,2.3 13.7,3.5 13.7,5 L13.7,6.2 C14.8,6.3 15.7,6.6 16.6,7 C18,7.6 18.7,9.2 18.2,10.7 C17.8,11.8 16.7,12.5 15.5,12.5 C15.1,12.5 14.8,12.4 14.4,12.3 C13.5,11.9 12.4,11.7 11.3,11.7 C8.9,11.7 8.7,13.1 8.7,13.5 C8.7,14.4 9,15 12.6,16.5 C15.8,17.8 19.6,20 19.6,25 C19.6,28.7 17.2,31.7 13.5,32.8 L13.5,34.4 C13.4,35.9 12.2,37.1 10.7,37.1 Z" id="Shape" class="fill-neutral"></path>
                <path d="M10.9,3.7 C11.6,3.7 12.1,4.2 12.1,4.9 L12.1,7.5 C13.7,7.6 15,7.9 16,8.3 C16.7,8.6 17,9.4 16.7,10 C16.5,10.5 16,10.9 15.4,10.9 C15.2,10.9 15,10.9 14.9,10.8 C14,10.4 12.8,10.1 11.3,10.1 C8.3,10.1 7.2,11.9 7.2,13.4 C7.2,15.4 8.6,16.4 12,17.8 C16,19.4 18,21.5 18,24.9 C18,28 15.9,30.8 11.9,31.5 L11.9,34.3 C11.9,35 11.4,35.5 10.7,35.5 C10,35.5 9.5,35 9.5,34.3 L9.5,31.6 C7.8,31.6 6,31.2 4.7,30.5 C4.1,30.2 3.7,29.5 4,28.8 C4.2,28.2 4.7,27.9 5.3,27.9 C5.5,27.9 5.7,27.9 5.9,28 C7.1,28.6 8.6,28.9 10.2,28.9 C13,28.9 14.8,27.3 14.8,25.1 C14.8,23 13.3,21.6 10.4,20.5 C6.4,18.9 4,17.2 4,13.8 C4,10.6 6.3,8.1 9.9,7.5 L9.9,4.8 C9.7,4.2 10.3,3.7 10.9,3.7 Z M10.9,0.7 C8.6,0.7 6.7,2.6 6.7,4.9 L6.7,5.4 C3.1,6.9 0.8,10.1 0.8,13.9 C0.8,20.2 6.6,22.4 9.1,23.4 C11.6,24.4 11.6,25 11.6,25.2 C11.6,26 10,26 10,26 C8.7,26 7.6,25.6 7,25.3 C6.4,25 5.8,24.9 5.2,24.9 C3.4,24.9 1.7,26.1 1.1,27.8 C0.3,30 1.3,32.3 3.4,33.3 C4.3,33.7 5.4,34.1 6.5,34.3 L6.5,34.4 C6.5,36.7 8.4,38.6 10.7,38.6 C13.1,38.6 14.9,36.7 14.9,34.4 L14.9,33.8 C18.7,32.3 21,29 21,24.9 C21,18.9 16.5,16.4 13.1,15 C10.9,14.1 10.3,13.6 10.2,13.4 C10.2,13.4 10.2,13.4 10.2,13.3 C10.2,13 10.9,13 11.3,13 C12.2,13 13,13.2 13.8,13.5 C14.3,13.7 14.9,13.8 15.5,13.8 C17.3,13.8 18.9,12.7 19.6,11 C20.4,8.8 19.4,6.3 17.2,5.4 C16.6,5.1 15.9,4.9 15.2,4.8 C15.1,2.5 13.2,0.7 10.9,0.7 Z" id="Shape" class="fill-primary"></path>
            </g>
        </g>
    </g>
</svg>
